resources/icons/16px/header-three.svg

<svg width="16" height="16" viewBox="0 0 16 16" fill="none" xmlns="http://www.w3.org/2000/svg">
<path fill-rule="evenodd" clip-rule="evenodd" d="M1 2C0.44 2 0 2.45 0 3V13C0 13.54 0.45 14 1 14C1.56 14 2 13.55 2 13V9H6V13C6 13.54 6.45 14 7 14C7.56 14 8 13.55 8 13V3C8 2.46 7.55 2 7 2C6.44 2 6 2.45 6 3V7H2V3C2 2.46 1.55 2 1 2ZM14.71 11.7293C15.12 11.8095 15.43 12.0301 15.66 12.381C15.89 12.7318 16 13.1529 16 13.6541C16 14.0251 15.93 14.3559 15.8 14.6266C15.66 14.9173 15.48 15.1679 15.25 15.3684C15.02 15.5689 14.75 15.7293 14.45 15.8396C14.15 15.9499 13.83 16 13.49 16C13.08 16 12.72 15.9398 12.41 15.8095C12.1 15.6892 11.85 15.4987 11.64 15.2682C11.43 15.0276 11.28 14.7469 11.17 14.416C11.06 14.0852 11.01 13.7143 11 13.3133H12.14C12.13 13.7845 12.23 14.1754 12.46 14.4862C12.69 14.797 13.03 14.9574 13.48 14.9574C13.87 14.9574 14.19 14.8371 14.45 14.5965C14.71 14.3559 14.84 14.015 14.84 13.5739C14.84 13.2732 14.79 13.0426 14.68 12.8622C14.57 12.6917 14.43 12.5514 14.25 12.4612C14.08 12.3709 13.88 12.3108 13.66 12.2907C13.44 12.2707 13.22 12.2607 12.99 12.2707V11.3383C13.18 11.3484 13.37 11.3383 13.56 11.2982C13.75 11.2682 13.92 11.198 14.07 11.1078C14.21 11.0175 14.33 10.8872 14.42 10.7268C14.51 10.5664 14.56 10.3659 14.56 10.1353C14.56 9.80451 14.46 9.54386 14.25 9.34336C14.05 9.14286 13.78 9.04261 13.46 9.04261C13.25 9.04261 13.08 9.08271 12.93 9.17293C12.78 9.26316 12.66 9.38346 12.56 9.53383C12.46 9.68421 12.39 9.85464 12.34 10.0451C12.29 10.2356 12.27 10.4261 12.28 10.6266H11.13C11.14 10.2456 11.21 9.90476 11.32 9.58396C11.43 9.26316 11.59 8.98246 11.79 8.75188C11.98 8.5213 12.23 8.33083 12.51 8.2005C12.79 8.07018 13.11 8 13.47 8C13.75 8 14.02 8.0401 14.29 8.13033C14.56 8.21053 14.8 8.34085 15.01 8.51128C15.22 8.6817 15.39 8.89223 15.52 9.15288C15.65 9.41353 15.71 9.71429 15.71 10.0551C15.71 10.4461 15.63 10.787 15.47 11.0777C15.31 11.3684 15.05 11.5789 14.71 11.7093V11.7293Z" fill="black"/>
</svg>

<svg xmlns="http://www.w3.org/2000/svg" viewBox="0 0 16 16">
  <path d="M1 2c-.56 0-1 .45-1 1v10c0 .54.45 1 1 1 .56 0 1-.45 1-1V9h4v4c0 .54.45 1 1 1 .56 0 1-.45 1-1V3c0-.54-.45-1-1-1-.56 0-1 .45-1 1v4H2V3c0-.54-.45-1-1-1m13.71 9.73c.41.08.72.3.95.651.23.35.34.772.34 1.273 0 .371-.07.702-.2.973-.14.29-.32.54-.55.741s-.5.361-.8.472-.62.16-.96.16c-.41 0-.77-.06-1.08-.19-.31-.12-.56-.311-.77-.542a2.4 2.4 0 0 1-.47-.852c-.11-.33-.16-.702-.17-1.103h1.14c-.01.471.09.862.32 1.173s.57.471 1.02.471c.39 0 .71-.12.97-.36q.39-.361.39-1.023c0-.3-.05-.531-.16-.712-.11-.17-.25-.31-.43-.4a1.6 1.6 0 0 0-.59-.171c-.22-.02-.44-.03-.67-.02v-.933c.19.01.38 0 .57-.04.19-.03.36-.1.51-.19.14-.09.26-.22.35-.381.09-.16.14-.361.14-.592 0-.33-.1-.591-.31-.792-.2-.2-.47-.3-.79-.3a1 1 0 0 0-.53.13c-.15.09-.27.21-.37.36-.1.151-.17.322-.22.512s-.07.381-.06.582h-1.15c.01-.381.08-.722.19-1.043s.27-.602.47-.832c.19-.23.44-.421.72-.552.28-.13.6-.2.96-.2.28 0 .55.04.82.13.27.08.51.21.72.381.21.17.38.381.51.642.13.26.19.561.19.902q0 .587-.24 1.023c-.16.29-.42.5-.76.631z"/>
</svg>
